!!!Melodie: Valet will ich dir geben
!!!Typ: Lied
**kern	**silbe	**silbe
*clefG2	*lang:DE	*lang:DE
*k[b-,e-]	*	*
*M4/4	*	*
2B-	Lass	von
=	=	=
4f	mich	dir
4f	dein	lass
4g	sein	mich
4a	und	nicht
=	=	=
2g	blei#	trei#
4g	#ben,	#ben,
4dd	du	halt
=	=	=
4cc	treu#	mich
4b-	#er	bei
4g	Gott	dei#
4a	und	#ner
=	=	=
2b-	Herr,	Lehr.
=:|	=	=
4r	.	%
4b-	.	Herr,
4dd	.	lass
4dd	.	mich
4cc	.	nur
4b-	.	nicht
=	=	=
2a	.	wan#
4f	.	#ken,
4f	.	gib
=	=	=
4b-	.	mir
4a	.	Be#
4g	.	#stän#
4g	.	#dig#
=	=	=
2f	.	#keit;
4r	.	%
4f	.	da#
=	=	=
4d	.	#für
4f	.	will
4g	.	ich
4f	.	dir
=	=	=
2f	.	dan#
4d	.	#ken
4d	.	in
=	=	=
4e-	.	al#
4d	.	#le
4c	.	E#
4c	.	#wig#
=	=	=
2B-	.	#keit.
==	==	==
*-	*-	*-
